X:105
T:Lulu Swing
C:Lulu Reinhardt 
N:TablEdited by Jean-Pierre Woos jeanpierre.woos@teledisnet.be
L:1/8
Q:1/4=200
M:4/4
K:C
z8 |: [^f3^c3D3A,3][fcDA,] [fcDA,][f2c2D2A,2][acFA,] | z3/2[a/^c/F/A,/] z6 :| [^f3^c3D3A,3][fcDA,] [fcDA,][f2c2D2A,2][acFA,] | 
z3/2[a/^c/F/A,/] z3A, B,D |: "D"^F=F ^FA,3 [a2d2F2B,2] | zA, B,D ^FA, B,D | "E7"^FF F^G,3 [^fBDG,][fBDG,] | 
z^G, B,D ^FG, B,D | "Em"^FF FG,3 [^f2B2D2G,2] | "A7"zF ^FA F4 |1 "D"z2 d^c =c2 cB | 
_B2 BA ^GA, B,D :|2 "D"zd ^cB AG ^FE | "D7"D^F Ac dc3 | "G"(3BcB G2 A3G | "G#°"(3_BcB G2 D2 _B,3/2A,/ | 
"D"z3F ^FA ^c=c | B^c (3d^fa ^c'c' bc' | (3"E7"b^c'b z4 ^f2 | ^f=f ed ed B2 | 
"Em"fd BA FD B,_B, | "A7"A,4 zA, B,D :|3 "D"zd ^cB AG ^FE | D^F Ad4z | 


